!!!OTL: Der heimkehrende Soldat
!!!OTL-incipit:Es kehrt ein Soldat vom Krieg zurueck, hurra!
!!!ARE: Europa, Mitteleuropa, Deutschland (BRD), Baden
!!!YOR: 5, S. 160
!!    ????
!!!SCT: Q0103I
!!!TXL: @@DE
!!!YEM: Copyright 1995, estate of Helmut Schaffrath.
**kern	**text
*ICvox	*
*M4/4	*
*met(c)	*
*k[f#]	*
*G:	*
!LO:TX:a:t=149 Baden	!
{4d	Es
=1	=1
4g	kehrt
8gL	ein
8gJ	Sol-
4g	-dat
4g	vom
=2	=2
(4g	Krieg
8.bL)	.
16bJ	ʒu-
4a	-rück,
4g	hur-
=3	=3
2a	-ra!
4r}	.
{4d	Es
=4	=4
4a	kehrt
8aL	ein
8aJ	Sol-
4a	-dat
4a	vom
=5	=5
(4a	Krieg
8.bL)	.
16bJ	ʒu-
4cc	-rück,
4dd	hur-
=6	=6
2b	-ra!
4r}	.
{(8ddL	Drei
8ccJ)	.
=7	=7
4b	Jah-
4b	-re
4b	hat
4dd	er
=8	=8
4.dd	treu
8cc	ge-
4cc}	-dient,
{8ccL	jetʒt
8bJ	be-
=9	=9
4a	-kommt
4a	er
4a	sei-
4ee	-nen
=10	=10
4.ee	Ab-
8dd	-schieds-
4dd}	.
{4cc	-brief,
=11	=11
4b	hur-
4b	-ra,
4a	hurra,
8ddL	tra-
8ccJ	-la-
=12	=12
2b	-la.
4r}	.
{(8ddL	Drei
8ccJ)	.
=13	=13
4b	Jah-
4b	-re
4b	hat
4dd	er
=14	=14
4.dd	treu
8cc	ge-
4cc}	-dient,
{8ccL	jetʒt
8bJ	be-
=15	=15
4a	-kommt
4a	er
4a	sei-
4ee	-nen
=16	=16
4.ee	Ab-
8dd	-schieds-
4dd}	.
{4cc	-brief,
=17	=17
4b	hur-
4b	-ra,
4a	hurra,
8ddL	tra-
8ccJ	-la-
=18	=18
2b	-la.
4r}	.
==	==
!!!AGN: Ballade, Ehe, Betrug
!! Anhaengsel; fuenfte und letzte Zeile = Refrain.
!!!ONB: ESAC (Essen Associative Code) Database: BALLADE
!!!AMT: simple quadruple
!!!AIN: vox
!!!EED: Helmut Schaffrath
!!!EEV: 1.0
!!!source: Deutsche Volkslieder mit ihren Melodien Balladen. Herausgegeben vom Deutschen Volksliedarchiv. Fünfter Teil. Freiburg/Breisgau 1965.
!!!page: 160
!!!ENC: Anna Maria Matuszewska
!!!EEV: 2025/03/04
*-	*-
